svg/face in clouds.svg

<?xml version="1.0" encoding="UTF-8" standalone="no"?>
<svg
   width="100%"
   height="100%"
   viewBox="0 0 128 128"
   version="1.1"
   xml:space="preserve"
   style="fill-rule:evenodd;clip-rule:evenodd;stroke-linejoin:round;stroke-miterlimit:2;"
   id="svg26489"
   sodipodi:docname="face in clouds.svg"
   inkscape:version="1.2.2 (732a01da63, 2022-12-09)"
   xmlns:inkscape="http://www.inkscape.org/namespaces/inkscape"
   xmlns:sodipodi="http://sodipodi.sourceforge.net/DTD/sodipodi-0.dtd"
   xmlns="http://www.w3.org/2000/svg"
   xmlns:svg="http://www.w3.org/2000/svg"
   xmlns:serif="http://www.serif.com/"><defs
   id="defs26493">
        
        
    
        
        
    
        
        
    
            
        </defs><sodipodi:namedview
   id="namedview26491"
   pagecolor="#ffffff"
   bordercolor="#000000"
   borderopacity="0.25"
   inkscape:showpageshadow="2"
   inkscape:pageopacity="0.0"
   inkscape:pagecheckerboard="0"
   inkscape:deskcolor="#d1d1d1"
   showgrid="false"
   inkscape:zoom="2.8284271"
   inkscape:cx="47.376154"
   inkscape:cy="81.31728"
   inkscape:window-width="1366"
   inkscape:window-height="697"
   inkscape:window-x="-8"
   inkscape:window-y="-8"
   inkscape:window-maximized="1"
   inkscape:current-layer="svg26489" />
    <path
   id="path26453"
   style="fill:#fcc21b;fill-rule:nonzero"
   d="M 61.429688 18.472656 L 52.945312 26.78125 L 38.875 29.5 L 30.375 38.3125 L 16.664062 32.035156 C 3.3339762 50.199728 0.76179331 74.588479 0.265625 87.246094 L 5.4804688 86.001953 L 13.5 88.75 L 21 86 L 33 86.5 L 55.685547 94.044922 L 67.175781 103.5918 L 79.373047 85.900391 L 90.447266 85.900391 L 103.5918 78.3125 L 110.94922 85.669922 L 116.27344 80.347656 L 127.54297 83.367188 C 126.72855 71.231721 123.93813 52.321517 114.41602 36.664062 L 113.25 36.875 L 106.875 35.625 L 96.25 39.25 L 89.978516 32.527344 L 83.173828 33.941406 L 76.191406 31.201172 L 74.953125 24.394531 L 67.882812 23.333984 L 61.429688 18.472656 z " /><g
   id="g26459">
            <path
   d="m 42.21,65.3 c -4.49,0.04 -8.17,-4.27 -8.22,-9.62 -0.05,-5.37 3.55,-9.75 8.04,-9.79 4.48,-0.04 8.17,4.27 8.22,9.64 0.05,5.35 -3.55,9.72 -8.04,9.77 z m 44.11,0 c 4.48,-0.01 8.11,-4.36 8.1,-9.71 -0.01,-5.37 -3.66,-9.7 -8.14,-9.69 -4.49,0.01 -8.13,4.36 -8.12,9.73 0.02,5.35 3.67,9.68 8.16,9.67 z"
   style="fill:#2f2f2f;fill-rule:nonzero"
   id="path26457" />
        </g>
    <g
   id="Cloud"
   transform="matrix(0.55469961,-0.22955356,-0.22955356,-0.55469961,74.986867,152.93139)">
        
        <path
   d="m 119.85,56.79 c 3.93,3.97 1.15,13.07 -1.55,16.04 -5.32,5.83 -15.08,4.47 -19,3.63 -1.06,-0.23 -1.23,-0.15 -1.58,0.06 -0.31,0.19 -0.45,0.49 -0.79,1.2 -1.26,2.72 -4.52,7.99 -11.4,10.11 C 78.36,90.04 71.6,86.67 68.44,84.66 67.24,83.9 67.19,83.88 66.65,83.89 66.1,83.9 65.56,84.3 64.91,84.81 62.05,87.06 55.52,91.03 45.45,90.45 35.58,89.88 29.93,83.8 27.99,80.67 27.62,80.07 27.22,79.57 26.76,79.52 26.23,79.47 25.64,80.01 25.2,80.45 21,84.54 7.78,85.77 3.4,78.8 c 4.46,7.15 11.35,10.69 18.42,10.78 0.93,0.01 1.83,-0.05 2.73,-0.16 4.61,9.72 14.5,16.44 25.97,16.44 6.92,0 13.26,-2.45 18.22,-6.52 3.79,2.81 8.47,4.49 13.55,4.49 10.42,0 19.19,-6.99 21.92,-16.54 1.72,0.57 3.55,0.89 5.46,0.89 9.58,0 17.35,-7.77 17.35,-17.35 -0.02,-5.1 -2.58,-10.86 -7.17,-14.04 z"
   style="fill:#b9cdd2;fill-rule:nonzero"
   id="path26464" />
    </g>
    <path
   d="m 67.918745,10.891588 c -2.252437,1.315697 -2.098325,5.756246 -1.239436,7.422186 1.694976,3.272591 6.261599,3.838744 8.131238,3.933627 0.505912,0.02437 0.572927,0.081 0.705408,0.218022 0.116865,0.123163 0.143759,0.275403 0.211299,0.636739 0.239597,1.379142 1.073091,4.150176 3.9201,5.937911 2.966936,1.863379 6.423332,1.160344 8.091578,0.635645 0.633113,-0.197768 0.658083,-0.200746 0.900442,-0.130972 0.246861,0.07101 0.442093,0.316667 0.673638,0.62526 1.018073,1.36052 3.483625,3.940398 8.095803,4.895836 4.520755,0.935775 7.804015,-1.12376 9.057345,-2.301082 0.2394,-0.225915 0.48026,-0.403095 0.69378,-0.370053 0.2451,0.0415 0.44596,0.356377 0.59124,0.608016 1.4001,2.352403 7.21433,4.504948 10.03232,1.890485 -2.87583,2.685983 -6.41141,3.449985 -9.61121,2.63611 -0.42069,-0.107858 -0.81938,-0.243726 -1.21204,-0.40211 -3.25408,3.827056 -8.527139,5.662824 -13.700695,4.276574 -3.12127,-0.836341 -5.684828,-2.70766 -7.430145,-5.142894 -2.049094,0.809397 -4.363054,1.001544 -6.654391,0.387582 -4.699951,-1.259348 -7.810857,-5.472121 -7.888028,-10.109599 -0.844692,0.04922 -1.708799,-0.02762 -2.570299,-0.258453 -4.321069,-1.157827 -6.886656,-5.601561 -5.72883,-9.922627 0.625072,-2.298029 2.476234,-4.586595 4.930881,-5.466196 z"
   style="fill:#e4eae6;fill-rule:nonzero;stroke-width:0.466962;fill-opacity:1"
   id="path26474" /><path
   d="m 61.655868,3.8805804 c 2.678757,1.564718 2.495483,6.8457306 1.474034,8.8269826 -2.015793,3.891997 -7.446741,4.565304 -9.670248,4.678146 -0.601665,0.02898 -0.681358,0.09633 -0.838921,0.259284 -0.138982,0.146477 -0.17096,0.327526 -0.251293,0.757255 -0.284935,1.640169 -1.276192,4.93568 -4.662054,7.061781 -3.528488,2.21606 -7.639077,1.379959 -9.623072,0.755952 -0.752942,-0.2352 -0.782639,-0.238742 -1.070868,-0.155762 -0.293583,0.08446 -0.525769,0.376602 -0.801138,0.743605 -1.210764,1.618025 -4.142972,4.686197 -9.628098,5.82247 -5.376404,1.112891 -9.281084,-1.336455 -10.771627,-2.73661 -0.284716,-0.268671 -0.571151,-0.479388 -0.825092,-0.440091 -0.29149,0.04935 -0.530362,0.423827 -0.703144,0.723096 -1.665099,2.797643 -8.5797933,5.3576 -11.9311415,2.248297 3.4201332,3.19436 7.6248922,4.102966 11.4303255,3.135048 0.500321,-0.128264 0.974464,-0.289857 1.441431,-0.478225 3.869992,4.551401 10.141087,6.734626 16.293837,5.086002 3.712034,-0.994637 6.760796,-3.22014 8.83645,-6.116293 2.436927,0.962594 5.18885,1.191108 7.91387,0.460941 5.589507,-1.497704 9.289223,-6.507831 9.380996,-12.023045 1.004573,0.05854 2.032218,-0.03284 3.056782,-0.307371 5.138915,-1.376968 8.190097,-6.661771 6.813129,-11.800684 -0.743773,-2.7328734 -2.944914,-5.4547016 -5.86416,-6.5007836 z"
   style="fill:#b9cdd2;fill-rule:nonzero;stroke-width:0.555344"
   id="path26469" />
    
    <g
   id="Cloud3"
   serif:id="Cloud"
   transform="matrix(0.66181277,0.1773322,0.1773322,-0.66181277,-19.113311,140.45789)"
   style="fill:#e4eae6;fill-opacity:1">
        
        <path
   d="m 119.85,56.79 c 3.93,3.97 1.15,13.07 -1.55,16.04 -5.32,5.83 -15.08,4.47 -19,3.63 -1.06,-0.23 -1.23,-0.15 -1.58,0.06 -0.31,0.19 -0.45,0.49 -0.79,1.2 -1.26,2.72 -4.52,7.99 -11.4,10.11 C 78.36,90.04 71.6,86.67 68.44,84.66 67.24,83.9 67.19,83.88 66.65,83.89 66.1,83.9 65.56,84.3 64.91,84.81 62.05,87.06 55.52,91.03 45.45,90.45 35.58,89.88 29.93,83.8 27.99,80.67 27.62,80.07 27.22,79.57 26.76,79.52 26.23,79.47 25.64,80.01 25.2,80.45 21,84.54 7.78,85.77 3.4,78.8 c 4.46,7.15 11.35,10.69 18.42,10.78 0.93,0.01 1.83,-0.05 2.73,-0.16 4.61,9.72 14.5,16.44 25.97,16.44 6.92,0 13.26,-2.45 18.22,-6.52 3.79,2.81 8.47,4.49 13.55,4.49 10.42,0 19.19,-6.99 21.92,-16.54 1.72,0.57 3.55,0.89 5.46,0.89 9.58,0 17.35,-7.77 17.35,-17.35 -0.02,-5.1 -2.58,-10.86 -7.17,-14.04 z"
   style="fill:#e4eae6;fill-rule:nonzero;fill-opacity:1"
   id="path26479" />
    </g>
    
</svg>

<?xml version="1.0" encoding="UTF-8" standalone="no"?>
<!DOCTYPE svg PUBLIC "-//W3C//DTD SVG 1.1//EN" "http://www.w3.org/Graphics/SVG/1.1/DTD/svg11.dtd">
<svg width="100%" height="100%" viewBox="0 0 128 128" version="1.1" xmlns="http://www.w3.org/2000/svg" xmlns:xlink="http://www.w3.org/1999/xlink" xml:space="preserve" xmlns:serif="http://www.serif.com/" style="fill-rule:evenodd;clip-rule:evenodd;stroke-linejoin:round;stroke-miterlimit:2;">
    <g id="g4534" transform="matrix(1,0,0,1,0,-1.8)">
        <g transform="matrix(1,0,0,1,0,1.8)">
            <path d="M64,9.56C1.59,9.56 0.12,79.52 0.12,93.36C0.12,107.22 28.71,118.44 64,118.44C99.28,118.44 127.88,107.22 127.88,93.36C127.88,79.52 126.4,9.56 64,9.56Z" style="fill:rgb(252,194,27);fill-rule:nonzero;"/>
        </g>
        <g transform="matrix(1,0,0,1,0,1.8)">
            <path d="M42.21,65.3C37.72,65.34 34.04,61.03 33.99,55.68C33.94,50.31 37.54,45.93 42.03,45.89C46.51,45.85 50.2,50.16 50.25,55.53C50.3,60.88 46.7,65.25 42.21,65.3ZM86.32,65.3C90.8,65.29 94.43,60.94 94.42,55.59C94.41,50.22 90.76,45.89 86.28,45.9C81.79,45.91 78.15,50.26 78.16,55.63C78.18,60.98 81.83,65.31 86.32,65.3Z" style="fill:rgb(47,47,47);fill-rule:nonzero;"/>
        </g>
    </g>
    <g id="Cloud" transform="matrix(0.600322,0,0,0.600322,2.13112,61.8721)">
        <path d="M109.65,53.48L109.64,53.48C109.64,53.41 109.65,53.34 109.65,53.27C109.65,43.72 101.91,35.97 92.35,35.97C91.12,35.97 89.92,36.1 88.77,36.35C85.34,28.01 77.15,22.13 67.57,22.13C60.38,22.13 53.97,25.45 49.77,30.63C46.982,29.212 43.898,28.472 40.77,28.47C30.42,28.47 21.92,36.35 20.93,46.44C9.68,47.04 0.65,56.26 0.5,67.71C0.34,79.63 9.89,89.43 21.81,89.58C22.74,89.59 23.64,89.53 24.54,89.42C29.15,99.14 39.04,105.86 50.51,105.86C57.43,105.86 63.77,103.41 68.73,99.34C72.52,102.15 77.2,103.83 82.28,103.83C92.7,103.83 101.47,96.84 104.2,87.29C105.92,87.86 107.75,88.18 109.66,88.18C119.24,88.18 127.01,80.41 127.01,70.83C127,61.25 119.24,53.48 109.65,53.48Z" style="fill:rgb(227,235,238);fill-opacity:0.94;fill-rule:nonzero;"/>
        <path d="M119.85,56.79C123.78,60.76 121,69.86 118.3,72.83C112.98,78.66 103.22,77.3 99.3,76.46C98.24,76.23 98.07,76.31 97.72,76.52C97.41,76.71 97.27,77.01 96.93,77.72C95.67,80.44 92.41,85.71 85.53,87.83C78.36,90.04 71.6,86.67 68.44,84.66C67.24,83.9 67.19,83.88 66.65,83.89C66.1,83.9 65.56,84.3 64.91,84.81C62.05,87.06 55.52,91.03 45.45,90.45C35.58,89.88 29.93,83.8 27.99,80.67C27.62,80.07 27.22,79.57 26.76,79.52C26.23,79.47 25.64,80.01 25.2,80.45C21,84.54 7.78,85.77 3.4,78.8C7.86,85.95 14.75,89.49 21.82,89.58C22.75,89.59 23.65,89.53 24.55,89.42C29.16,99.14 39.05,105.86 50.52,105.86C57.44,105.86 63.78,103.41 68.74,99.34C72.53,102.15 77.21,103.83 82.29,103.83C92.71,103.83 101.48,96.84 104.21,87.29C105.93,87.86 107.76,88.18 109.67,88.18C119.25,88.18 127.02,80.41 127.02,70.83C127,65.73 124.44,59.97 119.85,56.79Z" style="fill:rgb(185,205,210);fill-rule:nonzero;"/>
    </g>
    <g id="Cloud1" serif:id="Cloud" transform="matrix(0.555344,0,0,0.555344,4.13716,-8.71743)">
        <path d="M109.65,53.48L109.64,53.48C109.64,53.41 109.65,53.34 109.65,53.27C109.65,43.72 101.91,35.97 92.35,35.97C91.12,35.97 89.92,36.1 88.77,36.35C85.34,28.01 77.15,22.13 67.57,22.13C60.38,22.13 53.97,25.45 49.77,30.63C46.982,29.212 43.898,28.472 40.77,28.47C30.42,28.47 21.92,36.35 20.93,46.44C9.68,47.04 0.65,56.26 0.5,67.71C0.34,79.63 9.89,89.43 21.81,89.58C22.74,89.59 23.64,89.53 24.54,89.42C29.15,99.14 39.04,105.86 50.51,105.86C57.43,105.86 63.77,103.41 68.73,99.34C72.52,102.15 77.2,103.83 82.28,103.83C92.7,103.83 101.47,96.84 104.2,87.29C105.92,87.86 107.75,88.18 109.66,88.18C119.24,88.18 127.01,80.41 127.01,70.83C127,61.25 119.24,53.48 109.65,53.48Z" style="fill:rgb(227,235,238);fill-opacity:0.91;fill-rule:nonzero;"/>
        <path d="M119.85,56.79C123.78,60.76 121,69.86 118.3,72.83C112.98,78.66 103.22,77.3 99.3,76.46C98.24,76.23 98.07,76.31 97.72,76.52C97.41,76.71 97.27,77.01 96.93,77.72C95.67,80.44 92.41,85.71 85.53,87.83C78.36,90.04 71.6,86.67 68.44,84.66C67.24,83.9 67.19,83.88 66.65,83.89C66.1,83.9 65.56,84.3 64.91,84.81C62.05,87.06 55.52,91.03 45.45,90.45C35.58,89.88 29.93,83.8 27.99,80.67C27.62,80.07 27.22,79.57 26.76,79.52C26.23,79.47 25.64,80.01 25.2,80.45C21,84.54 7.78,85.77 3.4,78.8C7.86,85.95 14.75,89.49 21.82,89.58C22.75,89.59 23.65,89.53 24.55,89.42C29.16,99.14 39.05,105.86 50.52,105.86C57.44,105.86 63.78,103.41 68.74,99.34C72.53,102.15 77.21,103.83 82.29,103.83C92.71,103.83 101.48,96.84 104.21,87.29C105.93,87.86 107.76,88.18 109.67,88.18C119.25,88.18 127.02,80.41 127.02,70.83C127,65.73 124.44,59.97 119.85,56.79Z" style="fill:rgb(185,205,210);fill-rule:nonzero;"/>
    </g>
    <g id="Cloud2" serif:id="Cloud" transform="matrix(0.466962,0,0,0.466962,59.1483,-9.41385)">
        <path d="M109.65,53.48L109.64,53.48C109.64,53.41 109.65,53.34 109.65,53.27C109.65,43.72 101.91,35.97 92.35,35.97C91.12,35.97 89.92,36.1 88.77,36.35C85.34,28.01 77.15,22.13 67.57,22.13C60.38,22.13 53.97,25.45 49.77,30.63C46.982,29.212 43.898,28.472 40.77,28.47C30.42,28.47 21.92,36.35 20.93,46.44C9.68,47.04 0.65,56.26 0.5,67.71C0.34,79.63 9.89,89.43 21.81,89.58C22.74,89.59 23.64,89.53 24.54,89.42C29.15,99.14 39.04,105.86 50.51,105.86C57.43,105.86 63.77,103.41 68.73,99.34C72.52,102.15 77.2,103.83 82.28,103.83C92.7,103.83 101.47,96.84 104.2,87.29C105.92,87.86 107.75,88.18 109.66,88.18C119.24,88.18 127.01,80.41 127.01,70.83C127,61.25 119.24,53.48 109.65,53.48Z" style="fill:rgb(227,235,238);fill-opacity:0.91;fill-rule:nonzero;"/>
        <path d="M119.85,56.79C123.78,60.76 121,69.86 118.3,72.83C112.98,78.66 103.22,77.3 99.3,76.46C98.24,76.23 98.07,76.31 97.72,76.52C97.41,76.71 97.27,77.01 96.93,77.72C95.67,80.44 92.41,85.71 85.53,87.83C78.36,90.04 71.6,86.67 68.44,84.66C67.24,83.9 67.19,83.88 66.65,83.89C66.1,83.9 65.56,84.3 64.91,84.81C62.05,87.06 55.52,91.03 45.45,90.45C35.58,89.88 29.93,83.8 27.99,80.67C27.62,80.07 27.22,79.57 26.76,79.52C26.23,79.47 25.64,80.01 25.2,80.45C21,84.54 7.78,85.77 3.4,78.8C7.86,85.95 14.75,89.49 21.82,89.58C22.75,89.59 23.65,89.53 24.55,89.42C29.16,99.14 39.05,105.86 50.52,105.86C57.44,105.86 63.78,103.41 68.74,99.34C72.53,102.15 77.21,103.83 82.29,103.83C92.71,103.83 101.48,96.84 104.21,87.29C105.93,87.86 107.76,88.18 109.67,88.18C119.25,88.18 127.02,80.41 127.02,70.83C127,65.73 124.44,59.97 119.85,56.79Z" style="fill:rgb(185,205,210);fill-rule:nonzero;"/>
    </g>
    <g id="Cloud3" serif:id="Cloud" transform="matrix(0.685159,0,0,0.685159,39.5682,49.3596)">
        <path d="M109.65,53.48L109.64,53.48C109.64,53.41 109.65,53.34 109.65,53.27C109.65,43.72 101.91,35.97 92.35,35.97C91.12,35.97 89.92,36.1 88.77,36.35C85.34,28.01 77.15,22.13 67.57,22.13C60.38,22.13 53.97,25.45 49.77,30.63C46.982,29.212 43.898,28.472 40.77,28.47C30.42,28.47 21.92,36.35 20.93,46.44C9.68,47.04 0.65,56.26 0.5,67.71C0.34,79.63 9.89,89.43 21.81,89.58C22.74,89.59 23.64,89.53 24.54,89.42C29.15,99.14 39.04,105.86 50.51,105.86C57.43,105.86 63.77,103.41 68.73,99.34C72.52,102.15 77.2,103.83 82.28,103.83C92.7,103.83 101.47,96.84 104.2,87.29C105.92,87.86 107.75,88.18 109.66,88.18C119.24,88.18 127.01,80.41 127.01,70.83C127,61.25 119.24,53.48 109.65,53.48Z" style="fill:rgb(227,235,238);fill-opacity:0.96;fill-rule:nonzero;"/>
        <path d="M119.85,56.79C123.78,60.76 121,69.86 118.3,72.83C112.98,78.66 103.22,77.3 99.3,76.46C98.24,76.23 98.07,76.31 97.72,76.52C97.41,76.71 97.27,77.01 96.93,77.72C95.67,80.44 92.41,85.71 85.53,87.83C78.36,90.04 71.6,86.67 68.44,84.66C67.24,83.9 67.19,83.88 66.65,83.89C66.1,83.9 65.56,84.3 64.91,84.81C62.05,87.06 55.52,91.03 45.45,90.45C35.58,89.88 29.93,83.8 27.99,80.67C27.62,80.07 27.22,79.57 26.76,79.52C26.23,79.47 25.64,80.01 25.2,80.45C21,84.54 7.78,85.77 3.4,78.8C7.86,85.95 14.75,89.49 21.82,89.58C22.75,89.59 23.65,89.53 24.55,89.42C29.16,99.14 39.05,105.86 50.52,105.86C57.44,105.86 63.78,103.41 68.74,99.34C72.53,102.15 77.21,103.83 82.29,103.83C92.71,103.83 101.48,96.84 104.21,87.29C105.93,87.86 107.76,88.18 109.67,88.18C119.25,88.18 127.02,80.41 127.02,70.83C127,65.73 124.44,59.97 119.85,56.79Z" style="fill:rgb(185,205,210);fill-rule:nonzero;"/>
    </g>
    <g id="Cloud4" serif:id="Cloud" transform="matrix(0.44916,0,0,0.44916,1.21402,47.8743)">
        <g opacity="0.88">
            <path d="M109.65,53.48L109.64,53.48C109.64,53.41 109.65,53.34 109.65,53.27C109.65,43.72 101.91,35.97 92.35,35.97C91.12,35.97 89.92,36.1 88.77,36.35C85.34,28.01 77.15,22.13 67.57,22.13C60.38,22.13 53.97,25.45 49.77,30.63C46.982,29.212 43.898,28.472 40.77,28.47C30.42,28.47 21.92,36.35 20.93,46.44C9.68,47.04 0.65,56.26 0.5,67.71C0.34,79.63 9.89,89.43 21.81,89.58C22.74,89.59 23.64,89.53 24.54,89.42C29.15,99.14 39.04,105.86 50.51,105.86C57.43,105.86 63.77,103.41 68.73,99.34C72.52,102.15 77.2,103.83 82.28,103.83C92.7,103.83 101.47,96.84 104.2,87.29C105.92,87.86 107.75,88.18 109.66,88.18C119.24,88.18 127.01,80.41 127.01,70.83C127,61.25 119.24,53.48 109.65,53.48Z" style="fill:rgb(227,235,238);fill-rule:nonzero;"/>
            <path d="M119.85,56.79C123.78,60.76 121,69.86 118.3,72.83C112.98,78.66 103.22,77.3 99.3,76.46C98.24,76.23 98.07,76.31 97.72,76.52C97.41,76.71 97.27,77.01 96.93,77.72C95.67,80.44 92.41,85.71 85.53,87.83C78.36,90.04 71.6,86.67 68.44,84.66C67.24,83.9 67.19,83.88 66.65,83.89C66.1,83.9 65.56,84.3 64.91,84.81C62.05,87.06 55.52,91.03 45.45,90.45C35.58,89.88 29.93,83.8 27.99,80.67C27.62,80.07 27.22,79.57 26.76,79.52C26.23,79.47 25.64,80.01 25.2,80.45C21,84.54 7.78,85.77 3.4,78.8C7.86,85.95 14.75,89.49 21.82,89.58C22.75,89.59 23.65,89.53 24.55,89.42C29.16,99.14 39.05,105.86 50.52,105.86C57.44,105.86 63.78,103.41 68.74,99.34C72.53,102.15 77.21,103.83 82.29,103.83C92.71,103.83 101.48,96.84 104.21,87.29C105.93,87.86 107.76,88.18 109.67,88.18C119.25,88.18 127.02,80.41 127.02,70.83C127,65.73 124.44,59.97 119.85,56.79Z" style="fill:rgb(185,205,210);fill-rule:nonzero;"/>
        </g>
    </g>
</svg>
